X: 1
T: the Fairy Cobbler
B: O'Neill's 252
N: "With spirit"
N: "Collected by F.O'Neill"
N: Adjusted to 32 bars by John Chambers <jc:trillian.mit.edu>
M: 6/8
L: 1/8
K: Gm
(d/c/) \
| "Gm"B2G "F"A2F | "Eb"G2F "C7"D2=E | "F"F2=E "C7"F2G | "F"F3 "D7"d2c \
| "Gm"BAG "D7"AG^F | "Gm"G2=F "Cm"DEC | "D7"D=E^F "Cm"G2G | "Gm"G3 z2 :|
D \
| "Gm"G2G B2c | d2c f2d | "F"c2A F2A | c3- "D7"c2A \
| "Gm"G2G B2c | d2g g2=e | "Bb"f2d B2c | "D7"d3 "d.C."z2 |]
